icon-themes/sifr_svg/cmd/lc_distributerows.svg

<svg viewBox="0 0 24 24" xmlns="http://www.w3.org/2000/svg"><path d="m1 2v6 8h8v-2h-1v-4h3v2h2v-2h3v4h-1v2h8v-8-6zm2 2h3v4h-3zm5 0h3v4h-3zm5 0h3v4h-3zm5 0h3v4h-3zm-15 6h3v4h-3zm15 0h3v4h-3zm-7 4v4.683594l-1.28125-1.371094c-.190288-.18267-.4623094-.297278-.71875-.3125h-1v.412109.587891c0 .30945.0903.55232.28125.75l2.882812 3.25h1.615235c.618354-.725151 2.169859-2.233922 2.939453-3.25.19095-.19768.28125-.44055.28125-.75v-.587891-.412109h-1c-.224022 0-.528449.12983-.71875.3125l-1.28125 1.371094v-4.683594z" fill="#555753"/></svg>

<svg xmlns="http://www.w3.org/2000/svg" viewBox="0 0 24 24">
  <path
     style="fill:#555753"
     d="M 1 2 L 1 8 L 1 16 L 9 16 L 9 14 L 8 14 L 8 10 L 11 10 L 11 12 L 13 12 L 13 10 L 16 10 L 16 14 L 15 14 L 15 16 L 23 16 L 23 8 L 23 2 L 1 2 z M 3 4 L 6 4 L 6 8 L 3 8 L 3 4 z M 8 4 L 11 4 L 11 8 L 8 8 L 8 4 z M 13 4 L 16 4 L 16 8 L 13 8 L 13 4 z M 18 4 L 21 4 L 21 8 L 18 8 L 18 4 z M 3 10 L 6 10 L 6 14 L 3 14 L 3 10 z M 18 10 L 21 10 L 21 14 L 18 14 L 18 10 z M 11 14 L 11 18.683594 L 9.71875 17.3125 C 9.528462 17.12983 9.2564406 17.015222 9 17 L 8 17 L 8 17.412109 L 8 18 C 8 18.30945 8.0903 18.55232 8.28125 18.75 L 11.164062 22 L 12.779297 22 C 13.397651 21.274849 14.949156 19.766078 15.71875 18.75 C 15.9097 18.55232 16 18.30945 16 18 L 16 17.412109 L 16 17 L 15 17 C 14.775978 17 14.471551 17.12983 14.28125 17.3125 L 13 18.683594 L 13 14 L 11 14 z "
     />
</svg>
